packages/ffe-icons/icons/filled/md/wysiwyg.svg

<svg xmlns="http://www.w3.org/2000/svg" height="24" viewBox="0 -960 960 960" width="24"><path d="M212.309-140.001q-29.827 0-51.067-21.241-21.241-21.24-21.241-51.067v-535.382q0-29.827 21.241-51.067 21.24-21.241 51.067-21.241h535.382q29.827 0 51.067 21.241 21.241 21.24 21.241 51.067v535.382q0 29.827-21.241 51.067-21.24 21.241-51.067 21.241H212.309Zm0-59.999h535.382q5.385 0 8.847-3.462 3.462-3.462 3.462-8.847V-680H200v467.691q0 5.385 3.462 8.847 3.462 3.462 8.847 3.462Zm97.69-290.001q-12.749 0-21.374-8.628Q280-507.258 280-520.013q0-12.756 8.625-21.371 8.625-8.615 21.374-8.615h340.002q12.749 0 21.374 8.628Q680-532.742 680-519.987q0 12.756-8.625 21.371-8.625 8.615-21.374 8.615H309.999Zm0 160q-12.749 0-21.374-8.628Q280-347.258 280-360.013q0-12.756 8.625-21.371 8.625-8.615 21.374-8.615h180.002q12.749 0 21.374 8.628Q520-372.742 520-359.987q0 12.756-8.625 21.371-8.625 8.615-21.374 8.615H309.999Z"/></svg>

<svg xmlns="http://www.w3.org/2000/svg" height="24" viewBox="0 -960 960 960" width="24"><path d="M212.31-140q-29.83 0-51.07-21.24Q140-182.48 140-212.31v-535.38q0-29.83 21.24-51.07Q182.48-820 212.31-820h535.38q29.83 0 51.07 21.24Q820-777.52 820-747.69v535.38q0 29.83-21.24 51.07Q777.52-140 747.69-140H212.31Zm0-60h535.38q5.39 0 8.85-3.46t3.46-8.85V-680H200v467.69q0 5.39 3.46 8.85t8.85 3.46ZM310-490q-12.75 0-21.38-8.63-8.62-8.63-8.62-21.38 0-12.76 8.62-21.37Q297.25-550 310-550h340q12.75 0 21.38 8.63 8.62 8.63 8.62 21.38 0 12.76-8.62 21.37Q662.75-490 650-490H310Zm0 160q-12.75 0-21.38-8.63-8.62-8.63-8.62-21.38 0-12.76 8.62-21.37Q297.25-390 310-390h180q12.75 0 21.38 8.63 8.62 8.63 8.62 21.38 0 12.76-8.62 21.37Q502.75-330 490-330H310Z"/></svg>
